!!!COM: Claude Goudimel
!!!OMD: Psalm 54: O Dieu tout-puissant, sauve-moy
**kern	**kern	**kern	**kern
*part4	*part3	*part2	*part1
*staff4	*staff3	*staff2	*staff1
*I"bassus	*I"tenor	*I"contra	*I"superius
*clefF4	*clefC4	*clefC3	*clefC1
*k[b-]	*k[b-]	*k[b-]	*k[b-]
!!LO:TX:omd:t=
*M2/2	*M2/2	*M2/2	*M2/2
*met(c|)	*met(c|)	*met(c|)	*met(c|)
=1	=1	=1	=1
1F	1A	1c	1f
=2	=2	=2	=2
2BB-	2F	2B-	2d
2D	2F	2A	2d
=3	=3	=3	=3
1C	1G	1c	1e
=4	=4	=4	=4
1F	1A	1c	1f
=5	=5	=5	=5
2BB-	2B-	2d	2f
2BB-	2B-	2d	2f
=6	=6	=6	=6
1FF	1A	1c	1f
=7	=7	=7	=7
1r	1r	1r	1r
=8	=8	=8	=8
1F	1A	1c	1f
=9	=9	=9	=9
2F	2A	2c	2f
2C	2G	2c	2e
=10	=10	=10	=10
2F	2A	2c	2f
2F	2c	2A	2f
=11	=11	=11	=11
2BB-	2B-	2d	2f
2FF	2A	2c	2f
=12	=12	=12	=12
1C	1G	1c	1e
=13	=13	=13	=13
1FF	1A	1c	1f
=14	=14	=14	=14
1r	1r	1r	1r
=15	=15	=15	=15
1F	1A	1c	1f
=16	=16	=16	=16
2F	2A	2c	2f
2C	2G	2c	2e
=17	=17	=17	=17
1D	1F	1A	1d
=18	=18	=18	=18
1GG	1D	1G	1Bn
=19	=19	=19	=19
2C	2E	2G	2c
2FF	2F	2A	[2c
=20	=20	=20	=20
1GG	1D	1G	2c]
.	.	.	2Bn
=21	=21	=21	=21
1C	1C	1G	1c
=22	=22	=22	=22
1r	1r	1r	1r
=23	=23	=23	=23
1AA	1C	1E	1A
=24	=24	=24	=24
1GG	1D	1G	1Bn
=25	=25	=25	=25
1C	1E	1G	1c
=26	=26	=26	=26
2FF	2C	2A	2A
2FF	2F	2A	2c
=27	=27	=27	=27
2BB-	2F	2B-	2d
2C	2E	2G	2c
=28	=28	=28	=28
1FF	1F	1A	1c
=29	=29	=29	=29
1r	1r	1r	1r
=30	=30	=30	=30
1F	1c	1A	1f
=31	=31	=31	=31
2D	2F	2A	2f
2C	2G	2c	2e
=32	=32	=32	=32
2F	2A	2c	2f
2BB-	2F	2B-	2d
=33	=33	=33	=33
2GG	2B-	2d	2g
2BB-	2B-	2d	2f
=34	=34	=34	=34
1FF	1A	1c	1f
=35	=35	=35	=35
1r	1r	1r	1r
=36	=36	=36	=36
1F	1c	1A	1f
=37	=37	=37	=37
2G	2B-	2G	2d
2D	2A	2F	2d
=38	=38	=38	=38
2E-X	2G	2B-	2B-
2F	2c	2A	2f
=39	=39	=39	=39
2BB-	2B-	2G	2d
2FF	2A	[2F	2c
=40	=40	=40	=40
1C	1G	2F]	1c
.	.	2E	.
=41	=41	=41	=41
1FF	1A	1F	1c
=42	=42	=42	=42
1r	1r	1r	1r
=43	=43	=43	=43
1F	1A	1c	1f
=44	=44	=44	=44
2BB-	2B-	2d	2f
2F	2A	2c	2f
=45	=45	=45	=45
2BB-	2F	2B-	2d
2FF	2A	2c	2f
=46	=46	=46	=46
2C	2G	2c	2e
2D	2F	2F	2A
=47	=47	=47	=47
1C	1E	1G	1c
=48	=48	=48	=48
1FF	1F	1A	1c
=49	=49	=49	=49
1r	1r	1r	1r
=50	=50	=50	=50
1FF	1c	1A	1f
=51	=51	=51	=51
2BB-	2B-	2d	2f
2FF	2A	2c	2f
=52	=52	=52	=52
2C	2G	2c	2e
2D	2F	2A	2d
=53	=53	=53	=53
1AA	1A	1c	2e
.	.	.	[2f
=54	=54	=54	=54
1C	1G	1c	4f]
.	.	.	8e/L
.	.	.	8d/J
.	.	.	2e
=55	=55	=55	=55
1FF;	1F;	1c;	1f;
==	==	==	==
*-	*-	*-	*-
!!!software: music21 v.9.7.1
!!!software: music21 v.8.3.0
!!!RDF**kern: > = above
!!!RDF**kern: < = below
